;FLAVOR:Marlin
;TIME:7708
;Filament used: 4.9679m
;Layer height: 0.2
;MINX:74.014
;MINY:74.388
;MINZ:0.2
;MAXX:145.986
;MAXY:145.612
;MAXZ:47
;Generated with Cura_SteamEngine 4.13.1
M140 S70
M105
M190 S70
M104 S215
M105
M109 S215
M82 ;absolute extrusion mode
M201 X500.00 Y500.00 Z100.00 E5000.00 ;Setup machine max acceleration
M203 X500.00 Y500.00 Z10.00 E50.00 ;Setup machine max feedrate
M204 P500.00 R1000.00 T500.00 ;Setup Print/Retract/Travel acceleration
M205 X8.00 Y8.00 Z0.40 E5.00 ;Setup Jerk
M220 S100 ;Reset Feedrate
M221 S100 ;Reset Flowrate

G28 ;Home

G92 E0 ;Reset Extruder
G1 Z2.0 F3000 ;Move Z Axis up
G1 X10.1 Y20 Z0.28 F5000.0 ;Move to start position
G1 X10.1 Y200.0 Z0.28 F1500.0 E15 ;Draw the first line
G1 X10.4 Y200.0 Z0.28 F5000.0 ;Move to side a little
G1 X10.4 Y20 Z0.28 F1500.0 E30 ;Draw the second line
G92 E0 ;Reset Extruder
G1 Z2.0 F3000 ;Move Z Axis up

G92 E0
G92 E0
G1 F3000 E-2.5
;LAYER_COUNT:235
;LAYER:0
M107
G0 F6000 X117.059 Y87.606 Z0.2
;TYPE:SKIRT
G1 F3000 E0
G1 F1200 X120.12 Y88.041 E0.09455
G1 X121.171 Y88.748 E0.13329
G1 X121.347 Y89.167 E0.14719
G1 X121.145 Y88.931 E0.15669
G1 X120.97 Y88.793 E0.16351
G1 X120.326 Y88.365 E0.18716
G1 X120.028 Y88.215 E0.19736
G1 X119.743 Y88.144 E0.20634
G1 X117.206 Y87.793 E0.28467
G1 X117.069 Y87.693 E0.28986
G1 X117.059 Y87.606 E0.29253
G0 F6000 X116.629 Y87.634
G1 F1200 X116.729 Y87.327 E0.30241
G1 X116.927 Y87.183 E0.3099
G1 X120.267 Y87.658 E0.41307
G1 X121.494 Y88.484 E0.45831
G1 X121.876 Y89.395 E0.48852
G1 X121.426 Y91.27 E0.54749
G1 X120.515 Y92.323 E0.59007
G1 X120.324 Y92.608 E0.60056
G1 X120.159 Y92.555 E0.60586
G1 X120.878 Y90.962 E0.65931
G1 X121.127 Y90.322 E0.68032
G1 X121.191 Y90.047 E0.68895
G1 X121.176 Y89.765 E0.69759
G1 X121.083 Y89.499 E0.7062
G1 X120.919 Y89.269 E0.71484
G1 X120.749 Y89.126 E0.72164
G1 X120.105 Y88.698 E0.74529
G1 X119.85 Y88.577 E0.75392
G1 X119.688 Y88.54 E0.759
G1 X117.051 Y88.175 E0.84042
G1 X116.729 Y87.941 E0.85259
G1 X116.629 Y87.634 E0.86246
G0 F6000 X116.208 Y87.634
G1 F1200 X116.388 Y87.081 E0.88025
G1 X116.822 Y86.764 E0.89668
G1 X120.414 Y87.274 E1.00764
G1 X121.817 Y88.219 E1.05937
G1 X122.295 Y89.36 E1.09721
G1 X121.792 Y91.456 E1.16313
G1 X120.817 Y92.584 E1.20873
G1 X120.761 Y92.661 E1.21164
G1 X120.48 Y93.114 E1.22794
G1 X120.318 Y93.027 E1.23356
G1 X119.612 Y92.797 E1.25627
G1 X120.505 Y90.817 E1.3227
G1 X120.754 Y90.177 E1.3437
G1 X120.795 Y89.962 E1.3504
G1 X120.756 Y89.747 E1.35708
G1 X120.644 Y89.561 E1.36372
G1 X120.527 Y89.459 E1.36846
G1 X119.883 Y89.031 E1.39211
G1 X119.633 Y88.937 E1.40028
G1 X116.898 Y88.559 E1.48472
G1 X116.388 Y88.187 E1.50403
G1 X116.208 Y87.634 E1.52181
G0 F6000 X116.048 Y86.834
G1 F1200 X116.719 Y86.345 E1.5472
G1 X120.561 Y86.891 E1.66588
G1 X122.14 Y87.954 E1.7241
G1 X122.715 Y89.326 E1.76959
G1 X122.158 Y91.646 E1.84256
G1 X121.12 Y92.846 E1.89108
G1 X121.101 Y92.872 E1.89207
G1 X120.433 Y93.951 E1.93088
G1 X120.325 Y93.546 E1.9437
G1 X120.194 Y93.408 E1.94952
G1 X119.076 Y93.044 E1.98547
G1 X119.06 Y93.046 E1.98597
G1 X120.132 Y90.672 E2.06563
G1 X120.381 Y90.032 E2.08663
G1 X120.388 Y89.907 E2.09046
G1 X120.306 Y89.792 E2.09478
G1 X119.662 Y89.364 E2.11843
G1 X119.578 Y89.333 E2.12117
G1 X116.744 Y88.941 E2.20866
G1 X116.048 Y88.434 E2.235
G1 X115.787 Y87.634 E2.26073
G1 X116.048 Y86.834 E2.28647
G0 F6000 X103.271 Y89.72
G1 F1200 X103.06 Y90.367 E2.30728
G1 X102.49 Y90.782 E2.32884
G1 X101.136 Y91.072 E2.37119
G1 X101.022 Y91.143 E2.3753
G1 X100.474 Y91.828 E2.40213
G1 X100.43 Y91.945 E2.40595
G1 X100.451 Y92.042 E2.40899
G1 X101.012 Y93.178 E2.44773
G1 X100.775 Y93.108 E2.45529
G1 X99.657 Y93.472 E2.49125
G1 X99.527 Y93.606 E2.49696
G1 X99.444 Y93.89 E2.50601
G1 X98.331 Y91.677 E2.58176
G1 X98.668 Y89.658 E2.64437
G1 X99.374 Y89.145 E2.67105
G1 X101.416 Y88.937 E2.73383
G1 X102.528 Y88.686 E2.76869
G1 X103.06 Y89.073 E2.78881
G1 X103.271 Y89.72 E2.80962
G0 F6000 X102.849 Y89.72
G1 F1200 X102.719 Y90.121 E2.82252
G1 X102.324 Y90.408 E2.83745
G1 X101.052 Y90.681 E2.87723
G1 X100.851 Y90.765 E2.8839
G1 X100.709 Y90.893 E2.88974
G1 X100.161 Y91.578 E2.91657
G1 X100.058 Y91.77 E2.92323
G1 X100.031 Y91.987 E2.92992
G1 X100.092 Y92.219 E2.93726
G1 X100.386 Y92.813 E2.95753
G1 X99.533 Y93.091 E2.98497
G1 X99.499 Y93.11 E2.98616
G1 X98.747 Y91.615 E3.03734
G1 X99.037 Y89.885 E3.09098
G1 X99.521 Y89.533 E3.10929
G1 X101.457 Y89.335 E3.1688
G1 X101.529 Y89.323 E3.17103
G1 X102.44 Y89.116 E3.19961
G1 X102.719 Y89.319 E3.21016
G1 X102.849 Y89.72 E3.22305
G0 F6000 X102.429 Y89.72
G1 F1200 X102.379 Y89.873 E3.22797
G1 X102.156 Y90.035 E3.2364
G1 X100.968 Y90.29 E3.27356
G1 X100.704 Y90.388 E3.28217
G1 X100.397 Y90.643 E3.29438
G1 X99.849 Y91.328 E3.32121
G1 X99.706 Y91.571 E3.32983
G1 X99.636 Y91.845 E3.33848
G1 X99.645 Y92.127 E3.34711
G1 X99.733 Y92.396 E3.35576
G1 X99.822 Y92.576 E3.3619
G1 X99.698 Y92.617 E3.3659
G1 X99.163 Y91.552 E3.40235
G1 X99.404 Y90.113 E3.44697
G1 X99.669 Y89.92 E3.457
G1 X101.498 Y89.733 E3.51322
G1 X101.617 Y89.713 E3.51691
G1 X102.351 Y89.546 E3.53993
G1 X102.429 Y89.72 E3.54577
G0 F6000 X100.21 Y90.267
G1 F1200 X100.085 Y90.393 E3.55119
G1 X99.677 Y90.902 E3.57114
G1 X99.772 Y90.339 E3.58861
G1 X99.816 Y90.307 E3.59027
G1 X100.21 Y90.267 E3.60238
G1 F3000 E1.10238
G0 F6000 X93.405 Y99.777
G0 X92.905 Y100.643
G0 X90.498 Y108.585
G0 X90.845 Y109.061
G1 F3000 E3.60238
G1 F1200 X90.43 Y109.672 E3.62497
G1 X90.395 Y109.792 E3.62879
G1 X90.433 Y109.902 E3.63235
G1 X90.991 Y110.67 E3.66138
G1 X88.257 Y111.203 E3.74657
G1 X87.565 Y110.7 E3.77273
G1 X87.294 Y109.869 E3.79947
G1 X87.565 Y109.038 E3.8262
G1 X88.275 Y108.522 E3.85304
G1 X89.176 Y108.522 E3.8806
G1 X90.425 Y109.009 E3.92159
G1 X90.477 Y109.022 E3.92323
G1 X90.845 Y109.061 E3.93455
G0 F6000 X90.172 Y109.34
G1 F1200 X90.011 Y109.646 E3.94513
G1 X90 Y109.864 E3.9518
G1 X90.11 Y110.137 E3.9608
G1 X90.299 Y110.397 E3.97063
G1 X88.35 Y110.777 E4.03136
G1 X87.906 Y110.454 E4.04815
G1 X87.716 Y109.869 E4.06696
G1 X87.906 Y109.284 E4.08577
G1 X88.404 Y108.922 E4.1046
G1 X89.1 Y108.922 E4.12589
G1 X90.172 Y109.34 E4.16108
G0 F6000 X89.629 Y109.558
G1 F1200 X89.595 Y109.753 E4.16713
G1 X89.627 Y110.034 E4.17578
G1 X89.664 Y110.113 E4.17845
G1 X88.445 Y110.351 E4.21643
G1 X88.246 Y110.206 E4.22396
G1 X88.136 Y109.869 E4.2348
G1 X88.246 Y109.532 E4.24565
G1 X88.534 Y109.322 E4.25655
G1 X89.024 Y109.322 E4.27153
G1 X89.629 Y109.558 E4.29139
G0 F6000 X89.161 Y109.804
G1 F1200 X88.573 Y109.919 E4.30972
G1 X88.586 Y109.779 E4.31402
G1 X88.664 Y109.722 E4.31697
G1 X88.95 Y109.722 E4.32572
G1 X89.161 Y109.804 E4.33264
G1 F3000 E1.83264
G0 F6000 X92.849 Y119.264
G0 X93.35 Y120.126
G0 X99.304 Y125.707
G0 X99.934 Y125.911
G1 F3000 E4.33264
G1 F1200 X99.915 Y126.53 E4.35158
G1 X99.95 Y126.65 E4.3554
G1 X100.053 Y126.726 E4.35932
G1 X101.116 Y127.072 E4.3935
G1 X100.154 Y129.704 E4.47921
G1 X99.441 Y130.222 E4.50616
G1 X98.569 Y130.222 E4.53283
G1 X97.859 Y129.706 E4.55967
G1 X97.588 Y128.875 E4.5864
G1 X97.863 Y128.032 E4.61352
G1 X99.599 Y126.428 E4.6858
G1 X99.632 Y126.388 E4.68739
G1 X99.934 Y125.911 E4.70466
G0 F6000 X99.655 Y126.921
G1 F1200 X99.929 Y127.107 E4.71478
G1 X100.597 Y127.325 E4.73627
G1 X99.819 Y129.453 E4.80557
G1 X99.312 Y129.822 E4.82474
G1 X98.698 Y129.822 E4.84352
G1 X98.2 Y129.46 E4.86235
G1 X98.01 Y128.875 E4.88116
G1 X98.212 Y128.254 E4.90113
G1 X99.655 Y126.921 E4.96121
G0 F6000 X100.08 Y127.577
G1 F1200 X99.487 Y129.2 E5.01406
G1 X99.182 Y129.422 E5.02559
G1 X98.828 Y129.422 E5.03642
G1 X98.54 Y129.212 E5.04732
G1 X98.43 Y128.875 E5.05816
G1 X98.559 Y128.478 E5.07093
G1 X99.686 Y127.438 E5.11783
G1 X99.805 Y127.487 E5.12176
G1 X100.08 Y127.577 E5.13061
G0 F6000 X99.415 Y128.231
G1 F1200 X99.152 Y128.949 E5.154
G1 X99.053 Y129.022 E5.15776
G1 X98.957 Y129.022 E5.1607
G1 X98.88 Y128.965 E5.16363
G1 X98.85 Y128.875 E5.16653
G1 X98.907 Y128.7 E5.17216
G1 X99.415 Y128.231 E5.1933
G1 F3000 E2.6933
G0 F6000 X109.446 Y129.484
G0 X110.444 Y129.484
G0 X120.375 Y127.477
G1 F3000 E5.1933
G1 F1200 X120.521 Y127.671 E5.20073
G1 X120.787 Y127.915 E5.21176
G1 X121.42 Y128.314 E5.23465
G1 X121.518 Y128.616 E5.24436
G1 X121.408 Y128.953 E5.2552
G1 X121.12 Y129.163 E5.2661
G1 X120.766 Y129.163 E5.27693
G1 X120.455 Y128.937 E5.28868
G1 X120.01 Y127.772 E5.32682
G1 X120.085 Y127.741 E5.32931
G1 X120.375 Y127.477 E5.3413
G0 F6000 X120.371 Y126.806
G1 F1200 X120.841 Y127.43 E5.36519
G1 X121 Y127.577 E5.37181
G1 X121.755 Y128.053 E5.39911
G1 X121.938 Y128.616 E5.41721
G1 X121.748 Y129.201 E5.43602
G1 X121.25 Y129.563 E5.45485
G1 X120.636 Y129.563 E5.47363
G1 X120.125 Y129.191 E5.49296
G1 X119.464 Y127.462 E5.54957
G1 X119.606 Y127.48 E5.55395
G1 X119.818 Y127.429 E5.56062
G1 X120.06 Y127.234 E5.57012
G1 X120.371 Y126.806 E5.5863
G0 F6000 X120.365 Y126.134
G1 F1200 X121.16 Y127.189 E5.6267
G1 X121.213 Y127.238 E5.62891
G1 X122.091 Y127.792 E5.66066
G1 X122.36 Y128.616 E5.68717
G1 X122.089 Y129.447 E5.7139
G1 X121.379 Y129.963 E5.74074
G1 X120.507 Y129.963 E5.76741
G1 X119.792 Y129.443 E5.79445
G1 X118.798 Y126.839 E5.87969
G1 X119.513 Y127.071 E5.90268
G1 X119.638 Y127.071 E5.9065
G1 X119.737 Y126.999 E5.91025
G1 X120.365 Y126.134 E5.94294
G1 F3000 E3.44294
G0 F6000 X120.638 Y128.294
G1 F3000 E5.94294
G1 F1200 X121.084 Y128.575 E5.95906
G1 X121.068 Y128.706 E5.96309
G1 X120.991 Y128.763 E5.96602
G1 X120.895 Y128.763 E5.96896
G1 X120.787 Y128.684 E5.97305
G1 X120.638 Y128.294 E5.98582
G1 F3000 E3.48582
G0 F6000 X126.595 Y120.223
G0 X127.151 Y119.26
G0 X130.143 Y110.133
G0 X129.819 Y109.137
G0 X129.429 Y108.851
G0 X129.096 Y109.31
G1 F3000 E5.98582
G1 F1200 X131.563 Y108.753 E6.06317
G1 X132.252 Y109.254 E6.08922
G1 X132.523 Y110.085 E6.11595
G1 X132.252 Y110.916 E6.14268
G1 X131.542 Y111.432 E6.16953
G1 X130.666 Y111.432 E6.19632
G1 X130.052 Y111.007 E6.21915
G1 X129.953 Y110.972 E6.22236
G1 X129.128 Y110.911 E6.24766
G1 X129.608 Y110.251 E6.27262
G1 X129.646 Y110.132 E6.27644
G1 X129.608 Y110.015 E6.2802
G1 X129.096 Y109.31 E6.30685
G0 F6000 X129.776 Y109.566
G1 F1200 X131.475 Y109.183 E6.36012
G1 X131.911 Y109.5 E6.3766
G1 X132.101 Y110.085 E6.39541
G1 X131.911 Y110.67 E6.41422
G1 X131.413 Y111.032 E6.43305
G1 X130.79 Y111.032 E6.45211
G1 X130.279 Y110.678 E6.47112
G1 X129.982 Y110.573 E6.48075
G1 X129.874 Y110.565 E6.48406
G1 X130.025 Y110.289 E6.49368
G1 X130.043 Y110.071 E6.50037
G1 X129.931 Y109.78 E6.50991
G1 X129.776 Y109.566 E6.51799
G0 F6000 X130.388 Y109.838
G1 F1200 X131.386 Y109.613 E6.54928
G1 X131.571 Y109.748 E6.55628
G1 X131.681 Y110.085 E6.56712
G1 X131.571 Y110.422 E6.57797
G1 X131.283 Y110.632 E6.58887
G1 X130.916 Y110.632 E6.60009
G1 X130.507 Y110.349 E6.6153
G1 X130.421 Y110.306 E6.61824
G1 X130.444 Y110.195 E6.62171
G1 X130.422 Y109.914 E6.63033
G1 X130.388 Y109.838 E6.63287
G0 F6000 X130.899 Y110.134
G1 F1200 X131.251 Y110.054 E6.64391
G1 X131.231 Y110.175 E6.64766
G1 X131.154 Y110.232 E6.65059
G1 X131.041 Y110.232 E6.65405
G1 X130.899 Y110.134 E6.65933
G1 F3000 E4.15933
G0 F6000 X129.236 Y110.133
;TYPE:SUPPORT-INTERFACE
G1 F3000 E6.65933
G1 F1200 X129.085 Y110.596 E6.67422
G1 X128.689 Y110.884 E6.6892
G1 X128.203 Y110.884 E6.70406
G1 X128.009 Y110.743 E6.71139
G1 X127.704 Y110.784 E6.7208
G1 X127.536 Y110.673 E6.72696
G1 X127.539 Y110.003 E6.74745
G1 X127.539 Y109.995 E6.7477
G1 X127.536 Y109.553 E6.76122
G1 X127.794 Y109.632 E6.76947
G1 X127.958 Y109.503 E6.77585
G1 X128.053 Y109.491 E6.77878
G1 X128.203 Y109.382 E6.78445
G1 X128.689 Y109.382 E6.79931
G1 X129.085 Y109.67 E6.81429
G1 X129.236 Y110.133 E6.82918
G1 F3000 E4.32918
G0 F6000 X130.058 Y109.866
G0 X127.151 Y100.736
G0 X126.594 Y99.778
G0 X120.104 Y95.951
G0 X119.688 Y95.192
G1 F3000 E6.82918
G1 F1200 X119.565 Y95.26 E6.83348
G1 X119.508 Y95.242 E6.83531
G1 X118.769 Y94.811 E6.86147
G1 X118.472 Y94.641 E6.87194
G1 X118.461 Y94.585 E6.87368
G1 X118.577 Y94.32 E6.88253
G1 X118.533 Y94.185 E6.88687
G1 X118.684 Y93.722 E6.90176
G1 X119.08 Y93.434 E6.91674
G1 X119.566 Y93.434 E6.9316
G1 X119.962 Y93.722 E6.94658
G1 X120.113 Y94.185 E6.96147
G1 X119.962 Y94.648 E6.97636
G1 X119.696 Y94.842 E6.98643
G1 X119.688 Y95.192 E6.99714
G1 F3000 E4.49714
G0 F6000 X120.037 Y95.964
G0 X120.537 Y95.708
G0 X121.02 Y94.185
G0 X120.696 Y93.189
G0 X119.847 Y92.571
G0 X110.554 Y90.516
G0 X109.445 Y90.517
G0 X102.288 Y94.626
G0 X101.318 Y94.761
G1 F3000 E6.99714
G1 F1200 X101.229 Y94.812 E7.00028
G1 X100.728 Y95.104 E7.01801
G1 X100.495 Y95.135 E7.0252
G1 X100.29 Y95 E7.03271
G1 X100.284 Y95 E7.03289
G1 X100.227 Y94.959 E7.03504
G1 X100.227 Y94.958 E7.03507
G1 X99.889 Y94.712 E7.04785
G1 X99.738 Y94.249 E7.06275
G1 X99.889 Y93.786 E7.07764
G1 X100.285 Y93.498 E7.09262
G1 X100.771 Y93.498 E7.10748
G1 X101.164 Y93.784 E7.12234
G1 X101.169 Y93.802 E7.12292
G1 X101.433 Y93.976 E7.13259
G1 X101.504 Y94.329 E7.1436
G1 X101.316 Y94.757 E7.15789
G1 X101.318 Y94.761 E7.15803
G1 F3000 E4.65803
G0 F6000 X102.288 Y94.626
G0 X102.207 Y93.454
G0 X101.052 Y92.635
G0 X100.004 Y92.635
G0 X99.155 Y93.253
G0 X93.405 Y99.777
G0 X92.849 Y100.74
G0 X89.898 Y109.784
G0 X90.222 Y110.78
G0 X91.071 Y111.398
G0 X92.015 Y111.398
G0 X92.304 Y111.3
G0 X92.464 Y110.446
G1 F3000 E7.15803
G1 F1200 X92.177 Y110.358 E7.16721
G1 X92.041 Y110.464 E7.17248
G1 X91.913 Y110.48 E7.17643
G1 X91.839 Y110.535 E7.17925
G1 X91.352 Y110.535 E7.19414
G1 X90.956 Y110.247 E7.20912
G1 X90.805 Y109.784 E7.22401
G1 X90.956 Y109.321 E7.23891
G1 X91.352 Y109.033 E7.25388
G1 X91.839 Y109.033 E7.26877
G1 X92.084 Y109.211 E7.27804
G1 X92.296 Y109.183 E7.28458
G1 X92.464 Y109.294 E7.29073
G1 X92.461 Y109.997 E7.31223
G1 X92.461 Y110.004 E7.31245
G1 X92.464 Y110.446 E7.32597
G1 F3000 E4.82597
G0 F6000 X92.823 Y111.327
G0 X92.849 Y119.264
G0 X93.406 Y120.222
G0 X99.551 Y126.945
G0 X100.4 Y127.563
G0 X101.448 Y127.563
G0 X102.297 Y126.945
G0 X102.621 Y125.949
G0 X102.613 Y125.565
G0 X101.737 Y125.479
G1 F3000 E7.32597
G1 F1200 X101.749 Y125.539 E7.32784
G1 X101.652 Y125.76 E7.33522
G1 X101.714 Y125.949 E7.3413
G1 X101.563 Y126.412 E7.35619
G1 X101.167 Y126.7 E7.37117
G1 X100.681 Y126.7 E7.38603
G1 X100.285 Y126.412 E7.40101
G1 X100.134 Y125.949 E7.4159
G1 X100.285 Y125.485 E7.43082
G1 X100.479 Y125.344 E7.43816
G1 X100.305 Y125.042 E7.44882
G1 X100.31 Y124.809 E7.45595
G1 X100.434 Y124.741 E7.46027
G1 X100.491 Y124.759 E7.4621
G1 X101.457 Y125.323 E7.49631
G1 X101.464 Y125.323 E7.49652
G1 X101.737 Y125.479 E7.50614
G1 F3000 E5.00614
G0 F6000 X102.613 Y125.565
G0 X109.446 Y129.484
G0 X110.555 Y129.483
G0 X119.79 Y127.544
G0 X120.639 Y126.926
G0 X120.963 Y125.93
G0 X120.638 Y124.933
G0 X120.492 Y124.644
G0 X119.812 Y124.169
G0 X119.681 Y125.096
G1 F3000 E7.50614
G1 F1200 X119.73 Y125.34 E7.51375
G1 X119.905 Y125.467 E7.52036
G1 X120.056 Y125.93 E7.53526
G1 X119.905 Y126.393 E7.55015
G1 X119.509 Y126.681 E7.56512
G1 X119.023 Y126.681 E7.57999
G1 X118.627 Y126.393 E7.59496
G1 X118.539 Y126.119 E7.60376
G1 X118.475 Y126.077 E7.60611
G1 X118.403 Y125.725 E7.61709
G1 X118.594 Y125.29 E7.63162
G1 X118.771 Y125.189 E7.63786
G1 X119.18 Y124.95 E7.65234
G1 X119.413 Y124.919 E7.65953
G1 X119.681 Y125.096 E7.66935
G0 F6000 X119.217 Y125.158
G1 F1200 X118.615 Y125.761 E7.69541
G0 F6000 X118.716 Y125.505
G1 F1200 X119.587 Y126.375 E7.73306
G1 F3000 E5.23306
G0 F6000 X119.587 Y127.546
G0 X110.555 Y129.483
G0 X109.446 Y129.484
G0 X102.573 Y125.806
G0 X101.491 Y125.913
G1 F3000 E7.73306
G1 F1200 X100.906 Y126.499 E7.75838
G1 F3000 E5.25838
G0 F6000 X100.906 Y127.565
G0 X100.4 Y127.563
G0 X99.551 Y126.945
G0 X93.406 Y120.222
G0 X92.849 Y119.264
G0 X89.898 Y109.784
G0 X92.849 Y100.74
G0 X93.405 Y99.777
G0 X99.155 Y93.253
G0 X100.004 Y92.635
G0 X101.052 Y92.635
G0 X102.207 Y93.454
G0 X102.404 Y94.425
G0 X101.234 Y94.446
G1 F3000 E7.75838
G1 F1200 X100.486 Y93.698 E7.79074
G1 F3000 E5.29074
G0 F6000 X101.188 Y92.732
G0 X109.445 Y90.517
G0 X110.554 Y90.516
G0 X117.596 Y94.555
G0 X119.071 Y94.757
G1 F3000 E7.79074
G1 F1200 X119.838 Y93.99 E7.82391
G1 F3000 E5.32391
;MESH:pineapple-planter-smoothed.stl
G0 F6000 X120.851 Y93.661
G0 X110.62 Y102.095
G0 X111.458 Y100.643
G0 X111.346 Y100.836
;TYPE:WALL-INNER
